X: 1383
T: Muhayyerkürdî Aranağme (Nîmsofyan)
C: ?
O: Turkey
F: http://compmusic.upf.edu/node/140
N: muhayyerkurdi--aranagme--nimsofyan--1--
N: makam= muhayyerkurdi
N: form= aranagme
N: usul= nimsofyan = 2/4
M: 2/4
L: 1/16
K: C _B   
Q: 1/4=90
%%MIDI tuningsystem comma53
b3a g2f2  | a3g f2e2  | g3f e2d2  | f3e d2c2  | \
w:  ARANAĞME  |   |   |   | 
e3d c2B2  | A8  | 
w:   |   | 
c2d2 e2f2  | g3f e2d2  | f3e d2c2  | e3d c2B2  | \
w:   |   |   |   | 
d3c B2A2  | A8  | 
w:   |   | 
c2d2 e2f2  | g3f e2d2  | f3e d2c2  | e3d c2B2  | \
w:   |   |   |   | 
d3c B2A2  | A8  | 
w:   |   | 
|


